logo.svg

<svg xmlns="http://www.w3.org/2000/svg" viewBox="0 0 334.518 60">
  <linearGradient gradientTransform="rotate(25)" id="a" x1="0%" y1="0%" x2="100%" y2="0%">
    <stop offset="0%" stop-color="#e90dda"/>
    <stop offset="100%" stop-color="#15cff1"/>
  </linearGradient>
  <path d="M7.98 9.88q0 .16-.03.41H1.93q.13.98.86 1.58.74.59 1.83.59 1.33 0 2.14-.9l.74.87q-.5.59-1.25.9-.75.31-1.67.31-1.18 0-2.09-.49-.91-.48-1.41-1.35-.49-.87-.49-1.96 0-1.08.48-1.94.48-.87 1.33-1.36.85-.48 1.91-.48 1.07 0 1.9.48.83.49 1.3 1.36.47.86.47 1.98zM4.31 7.2q-.96 0-1.62.58-.65.59-.76 1.54h4.76q-.11-.93-.76-1.53-.65-.59-1.62-.59zm6.82.18q.35-.65 1.04-.98.68-.34 1.66-.34v1.3q-.11-.01-.31-.01-1.09 0-1.71.65-.62.65-.62 1.86v3.69H9.84V6.13h1.29v1.25zm4.45 6.17V6.13h1.35v7.42h-1.35zm.67-8.85q-.39 0-.65-.25t-.26-.61q0-.37.26-.63t.65-.26q.4 0 .66.25.25.24.25.61 0 .38-.25.64-.26.25-.66.25zm9.5 8.85h-1.53l-2.14-2.84-2.17 2.84h-1.5l2.93-3.79-2.79-3.63h1.5l2.04 2.68 2.03-2.68h1.47l-2.8 3.63 2.96 3.79zm5.43-7.49q1.41 0 2.24.82.84.82.84 2.4v4.27h-1.35V9.44q0-1.08-.51-1.63-.52-.54-1.49-.54-1.09 0-1.72.63-.63.64-.63 1.83v3.82h-1.34V3.16h1.34v4.02q.42-.53 1.1-.82.68-.3 1.52-.3zm12.28 3.82q0 .16-.03.41h-6.02q.12.98.86 1.58.73.59 1.83.59 1.33 0 2.14-.9l.74.87q-.5.59-1.25.9-.75.31-1.68.31-1.17 0-2.08-.49-.91-.48-1.41-1.35-.5-.87-.5-1.96 0-1.08.49-1.94.48-.87 1.33-1.36.84-.48 1.91-.48 1.06 0 1.9.48.83.49 1.3 1.36.47.86.47 1.98zM39.79 7.2q-.97 0-1.62.58-.65.59-.76 1.54h4.76q-.11-.93-.76-1.53-.66-.59-1.62-.59zm9.49-1.14q1.41 0 2.25.82.83.82.83 2.4v4.27h-1.34V9.44q0-1.08-.52-1.63-.52-.54-1.49-.54-1.09 0-1.72.63-.63.64-.63 1.83v3.82h-1.34V6.13h1.29v1.12q.4-.57 1.09-.88.7-.31 1.58-.31zm7.7 7.58q-.91 0-1.75-.25-.84-.24-1.32-.62l.56-1.07q.49.35 1.19.56.7.21 1.42.21 1.76 0 1.76-1 0-.34-.24-.54-.23-.19-.59-.28-.36-.09-1.02-.21-.89-.14-1.46-.32t-.97-.61q-.41-.44-.41-1.22 0-1.01.84-1.62.84-.61 2.26-.61.74 0 1.48.18.74.19 1.22.49l-.58 1.07q-.91-.59-2.14-.59-.85 0-1.3.28-.45.28-.45.74 0 .37.25.58.26.21.63.3.37.1 1.04.23.9.15 1.45.33.55.17.94.59.4.42.4 1.18 0 1.01-.87 1.6-.86.6-2.34.6z" fill="url(#a)" transform="translate(-3.312 -16.558) scale(5.61272)"/>
</svg>

<svg data-v-d3f97b9e="" xmlns="http://www.w3.org/2000/svg" viewBox="0 0 334.5182160706514 60"><!----><!----><linearGradient data-v-d3f97b9e="" gradientTransform="rotate(25)" id="1fccf435-83e0-46dd-a04d-996cfee7379e" x1="0%" y1="0%" x2="100%" y2="0%"><stop data-v-d3f97b9e="" offset="0%" style="stop-color: rgb(233, 13, 218); stop-opacity: 1;"></stop><stop data-v-d3f97b9e="" offset="100%" style="stop-color: rgb(21, 207, 241); stop-opacity: 1;"></stop></linearGradient><g data-v-d3f97b9e="" id="472a3423-76c7-4d94-8b3c-a6f7d3feadb7" fill="url(#1fccf435-83e0-46dd-a04d-996cfee7379e)" transform="matrix(5.612721889848748,0,0,5.612721889848748,-3.3115047598202807,-16.557529604270663)"><path d="M7.98 9.88L7.98 9.88Q7.98 10.04 7.95 10.29L7.95 10.29L1.93 10.29L1.93 10.29Q2.06 11.27 2.79 11.87L2.79 11.87L2.79 11.87Q3.53 12.46 4.62 12.46L4.62 12.46L4.62 12.46Q5.95 12.46 6.76 11.56L6.76 11.56L7.50 12.43L7.50 12.43Q7 13.02 6.25 13.33L6.25 13.33L6.25 13.33Q5.50 13.64 4.58 13.64L4.58 13.64L4.58 13.64Q3.40 13.64 2.49 13.15L2.49 13.15L2.49 13.15Q1.58 12.67 1.08 11.80L1.08 11.80L1.08 11.80Q0.59 10.93 0.59 9.84L0.59 9.84L0.59 9.84Q0.59 8.76 1.07 7.90L1.07 7.90L1.07 7.90Q1.55 7.03 2.40 6.54L2.40 6.54L2.40 6.54Q3.25 6.06 4.31 6.06L4.31 6.06L4.31 6.06Q5.38 6.06 6.21 6.54L6.21 6.54L6.21 6.54Q7.04 7.03 7.51 7.90L7.51 7.90L7.51 7.90Q7.98 8.76 7.98 9.88L7.98 9.88ZM4.31 7.20L4.31 7.20Q3.35 7.20 2.69 7.78L2.69 7.78L2.69 7.78Q2.04 8.37 1.93 9.32L1.93 9.32L6.69 9.32L6.69 9.32Q6.58 8.39 5.93 7.79L5.93 7.79L5.93 7.79Q5.28 7.20 4.31 7.20L4.31 7.20ZM11.13 7.38L11.13 7.38Q11.48 6.73 12.17 6.40L12.17 6.40L12.17 6.40Q12.85 6.06 13.83 6.06L13.83 6.06L13.83 7.36L13.83 7.36Q13.72 7.35 13.52 7.35L13.52 7.35L13.52 7.35Q12.43 7.35 11.81 8.00L11.81 8.00L11.81 8.00Q11.19 8.65 11.19 9.86L11.19 9.86L11.19 13.55L9.84 13.55L9.84 6.13L11.13 6.13L11.13 7.38ZM15.58 13.55L15.58 6.13L16.93 6.13L16.93 13.55L15.58 13.55ZM16.25 4.70L16.25 4.70Q15.86 4.70 15.60 4.45L15.60 4.45L15.60 4.45Q15.34 4.20 15.34 3.84L15.34 3.84L15.34 3.84Q15.34 3.47 15.60 3.21L15.60 3.21L15.60 3.21Q15.86 2.95 16.25 2.95L16.25 2.95L16.25 2.95Q16.65 2.95 16.91 3.20L16.91 3.20L16.91 3.20Q17.16 3.44 17.16 3.81L17.16 3.81L17.16 3.81Q17.16 4.19 16.91 4.45L16.91 4.45L16.91 4.45Q16.65 4.70 16.25 4.70L16.25 4.70ZM25.75 13.55L24.22 13.55L22.08 10.71L19.91 13.55L18.41 13.55L21.34 9.76L18.55 6.13L20.05 6.13L22.09 8.81L24.12 6.13L25.59 6.13L22.79 9.76L25.75 13.55ZM31.18 6.06L31.18 6.06Q32.59 6.06 33.42 6.88L33.42 6.88L33.42 6.88Q34.26 7.70 34.26 9.28L34.26 9.28L34.26 13.55L32.91 13.55L32.91 9.44L32.91 9.44Q32.91 8.36 32.40 7.81L32.40 7.81L32.40 7.81Q31.88 7.27 30.91 7.27L30.91 7.27L30.91 7.27Q29.82 7.27 29.19 7.90L29.19 7.90L29.19 7.90Q28.56 8.54 28.56 9.73L28.56 9.73L28.56 13.55L27.22 13.55L27.22 3.16L28.56 3.16L28.56 7.18L28.56 7.18Q28.98 6.65 29.66 6.36L29.66 6.36L29.66 6.36Q30.34 6.06 31.18 6.06L31.18 6.06ZM43.46 9.88L43.46 9.88Q43.46 10.04 43.43 10.29L43.43 10.29L37.41 10.29L37.41 10.29Q37.53 11.27 38.27 11.87L38.27 11.87L38.27 11.87Q39.00 12.46 40.10 12.46L40.10 12.46L40.10 12.46Q41.43 12.46 42.24 11.56L42.24 11.56L42.98 12.43L42.98 12.43Q42.48 13.02 41.73 13.33L41.73 13.33L41.73 13.33Q40.98 13.64 40.05 13.64L40.05 13.64L40.05 13.64Q38.88 13.64 37.97 13.15L37.97 13.15L37.97 13.15Q37.06 12.67 36.56 11.80L36.56 11.80L36.56 11.80Q36.06 10.93 36.06 9.84L36.06 9.84L36.06 9.84Q36.06 8.76 36.55 7.90L36.55 7.90L36.55 7.90Q37.03 7.03 37.88 6.54L37.88 6.54L37.88 6.54Q38.72 6.06 39.79 6.06L39.79 6.06L39.79 6.06Q40.85 6.06 41.69 6.54L41.69 6.54L41.69 6.54Q42.52 7.03 42.99 7.90L42.99 7.90L42.99 7.90Q43.46 8.76 43.46 9.88L43.46 9.88ZM39.79 7.20L39.79 7.20Q38.82 7.20 38.17 7.78L38.17 7.78L38.17 7.78Q37.52 8.37 37.41 9.32L37.41 9.32L42.17 9.32L42.17 9.32Q42.06 8.39 41.41 7.79L41.41 7.79L41.41 7.79Q40.75 7.20 39.79 7.20L39.79 7.20ZM49.28 6.06L49.28 6.06Q50.69 6.06 51.53 6.88L51.53 6.88L51.53 6.88Q52.36 7.70 52.36 9.28L52.36 9.28L52.36 13.55L51.02 13.55L51.02 9.44L51.02 9.44Q51.02 8.36 50.50 7.81L50.50 7.81L50.50 7.81Q49.98 7.27 49.01 7.27L49.01 7.27L49.01 7.27Q47.92 7.27 47.29 7.90L47.29 7.90L47.29 7.90Q46.66 8.54 46.66 9.73L46.66 9.73L46.66 13.55L45.32 13.55L45.32 6.13L46.61 6.13L46.61 7.25L46.61 7.25Q47.01 6.68 47.70 6.37L47.70 6.37L47.70 6.37Q48.40 6.06 49.28 6.06L49.28 6.06ZM56.98 13.64L56.98 13.64Q56.07 13.64 55.23 13.39L55.23 13.39L55.23 13.39Q54.39 13.15 53.91 12.77L53.91 12.77L54.47 11.70L54.47 11.70Q54.96 12.05 55.66 12.26L55.66 12.26L55.66 12.26Q56.36 12.47 57.08 12.47L57.08 12.47L57.08 12.47Q58.84 12.47 58.84 11.47L58.84 11.47L58.84 11.47Q58.84 11.13 58.60 10.93L58.60 10.93L58.60 10.93Q58.37 10.74 58.01 10.65L58.01 10.65L58.01 10.65Q57.65 10.56 56.99 10.44L56.99 10.44L56.99 10.44Q56.10 10.30 55.53 10.12L55.53 10.12L55.53 10.12Q54.96 9.94 54.56 9.51L54.56 9.51L54.56 9.51Q54.15 9.07 54.15 8.29L54.15 8.29L54.15 8.29Q54.15 7.28 54.99 6.67L54.99 6.67L54.99 6.67Q55.83 6.06 57.25 6.06L57.25 6.06L57.25 6.06Q57.99 6.06 58.73 6.24L58.73 6.24L58.73 6.24Q59.47 6.43 59.95 6.73L59.95 6.73L59.37 7.80L59.37 7.80Q58.46 7.21 57.23 7.21L57.23 7.21L57.23 7.21Q56.38 7.21 55.93 7.49L55.93 7.49L55.93 7.49Q55.48 7.77 55.48 8.23L55.48 8.23L55.48 8.23Q55.48 8.60 55.73 8.81L55.73 8.81L55.73 8.81Q55.99 9.02 56.36 9.11L56.36 9.11L56.36 9.11Q56.73 9.21 57.40 9.34L57.40 9.34L57.40 9.34Q58.30 9.49 58.85 9.67L58.85 9.67L58.85 9.67Q59.40 9.84 59.79 10.26L59.79 10.26L59.79 10.26Q60.19 10.68 60.19 11.44L60.19 11.44L60.19 11.44Q60.19 12.45 59.32 13.04L59.32 13.04L59.32 13.04Q58.46 13.64 56.98 13.64L56.98 13.64Z"></path></g><!----><!----></svg>
